public/svgs/value/title4.svg

<svg xmlns="http://www.w3.org/2000/svg" width="1800" height="364" fill="none" viewBox="0 0 1800 364"><path fill="#bb1212" d="M8.292 143.2 50.892 10h38l42.4 133.2-3 4.8h-20.6l-9.4-30.4h-57l-9.6 30.4h-20.2zm39.8-47.8h43.6l-20-63.2h-3.8zm138.911-80.6 3.2-4.8h21.2l34.2 115.8h3.8l34.2-115.8h21.4l3 4.8-40.8 133.2h-39.6zM328.719 148V10h24.4v138zm58.398 0V10h66.4q32.6 0 32.6 32.6v22.6q0 25.2-20 30.6l24 47-3 5.2h-20.8l-25.6-50.4h-29.2V148zm24.4-72.6h41.4q8.8 0 8.8-8.8V40.8q0-8.6-8.8-8.6h-41.4zm92.306-43.2V10h111.4v22.2h-43.4V148h-24.6V32.2zm132.094 83.2V10h24.4v107.2q0 8.6 8.8 8.6h40.6q8.8 0 8.8-8.6V10h24.4v105.4q0 32.6-32.6 32.6h-41.8q-32.6 0-32.6-32.6m137.872 0V42.6q0-32.6 32.6-32.6h45.8q32.6 0 32.6 32.6v72.8q0 32.6-32.6 32.6h-45.8q-32.6 0-32.6-32.6m24.4 1.8q0 8.6 8.8 8.6h44.6q8.8 0 8.8-8.6V40.8q0-8.6-8.8-8.6h-44.6q-8.8 0-8.8 8.6zm117.416-1.8V10h24.4v107.2q0 8.6 8.8 8.6h40.6q8.8 0 8.8-8.6V10h24.395v105.4c0 21.733-10.86 32.6-32.595 32.6h-41.8q-32.6 0-32.6-32.6m133.875 23.4v-13h61.8c5.86 0 8.8-2.867 8.8-8.6V102c0-5.067-2.27-8.067-6.8-9l-40.6-8.2c-15.47-3.067-23.2-13.467-23.2-31.2v-11c0-21.733 10.86-32.6 32.6-32.6h46.6l11.8 9.2v13h-57.8c-5.87 0-8.8 2.867-8.8 8.6v13.4c0 5.067 2.26 8.067 6.8 9l40.6 8c15.46 3.2 23.2 13.6 23.2 31.2v13c0 21.733-10.87 32.6-32.6 32.6h-50.6zm169.04-23.4V42.6c0-21.733 10.86-32.6 32.6-32.6h54.4l11.8 9.2v13h-65.6c-5.87 0-8.8 2.867-8.8 8.6v76.4c0 5.733 2.93 8.6 8.8 8.6h65.6v13l-11.8 9.2h-54.4c-21.74 0-32.6-10.867-32.6-32.6m112.62-100.6 3-4.8h20.8l32.6 62.6 32.8-62.6h21l2.8 4.8-44.2 83.6V148h-24.6V98.4zm131.71 100.6V42.6c0-21.733 10.87-32.6 32.6-32.6h54.4l11.8 9.2v13h-65.6c-5.87 0-8.8 2.867-8.8 8.6v76.4c0 5.733 2.93 8.6 8.8 8.6h65.6v13l-11.8 9.2h-54.4c-21.73 0-32.6-10.867-32.6-32.6m125.83 32.6V10h24.4v115.8h62.4V148zm108.59 0V10h92.8v22.2h-68.4v33.2h62.4v22.2h-62.4v38.2h68.4V148z"/><path fill="#000" d="M351.827 331V215.08h54.096q27.384 0 27.384 27.384v10.584q0 5.712-3.36 9.744l-5.88 7.056 7.056 5.88q5.544 4.536 5.544 13.44v14.448q0 27.384-27.384 27.384zm20.496-18.648h36.456q7.392 0 7.392-7.224v-17.64q0-7.224-7.392-7.224h-36.456zm0-50.736h33.096q7.392 0 7.392-7.392v-13.272q0-7.224-7.392-7.224h-33.096zM460.928 331V215.08h77.952v18.648h-57.456v27.888h52.416v18.648h-52.416v32.088h57.456V331zm100.571 0V215.08h20.496v46.536h48.888V215.08h20.496V331h-20.496v-50.736h-48.888V331zm118.453 0V215.08h20.496V331zm49.055 0V215.08h22.344l51.408 82.656V215.08h20.496V331h-22.176l-51.576-82.656V331zm122.882 0V215.08h44.52q45.36 0 45.36 45.528v24.864q0 45.528-45.36 45.528zm20.496-18.648h25.2q23.688 0 23.688-23.688v-31.248q0-23.688-23.688-23.688h-25.2zm123.784 14.616 35.781-111.888h31.92l35.62 111.888-2.52 4.032h-17.31l-7.89-25.536h-47.88L1015.82 331h-16.963zm33.431-40.152h36.62l-16.8-53.088h-3.19zm86.41 16.8V215.08h20.49v90.048c0 4.816 2.47 7.224 7.39 7.224H1178c4.93 0 7.39-2.408 7.39-7.224V215.08h20.5v88.536q0 27.384-27.39 27.384h-35.11c-18.26 0-27.38-9.128-27.38-27.384M1233.5 331V215.08h44.52q45.36 0 45.36 45.528v24.864q0 45.528-45.36 45.528zm20.49-18.648h25.2c15.8 0 23.69-7.896 23.69-23.688v-31.248c0-15.792-7.89-23.688-23.69-23.688h-25.2zm83.43 14.616 35.78-111.888h31.92l35.62 111.888-2.52 4.032h-17.31l-7.89-25.536h-47.88L1357.07 331h-16.96zm33.43-40.152h36.62l-16.8-53.088h-3.19zm85.73 16.8v-61.152q0-27.384 27.39-27.384h45.69l9.92 7.728v10.92h-55.11c-4.93 0-7.39 2.408-7.39 7.224v64.176c0 4.816 2.46 7.224 7.39 7.224h55.11v10.92l-9.92 7.728h-45.69q-27.39 0-27.39-27.384M1562.28 331V215.08h20.5V331zm38.81-97.272V215.08h93.57v18.648h-36.45V331h-20.67v-97.272zm100.88-14.616 2.52-4.032h17.47l27.38 52.584 27.55-52.584h17.64l2.36 4.032-37.13 70.224V331h-20.67v-41.664z"/></svg>

<svg width="1800" height="364" viewBox="0 0 1800 364" fill="none" xmlns="http://www.w3.org/2000/svg">
<path d="M8.29219 143.2L50.8922 9.99999H88.8922L131.292 143.2L128.292 148H107.692L98.2922 117.6H41.2922L31.6922 148H11.4922L8.29219 143.2ZM48.0922 95.4H91.6922L71.6922 32.2H67.8922L48.0922 95.4ZM187.003 14.8L190.203 9.99999H211.403L245.603 125.8H249.403L283.603 9.99999H305.003L308.003 14.8L267.203 148H227.603L187.003 14.8ZM328.719 148V9.99999H353.119V148H328.719ZM387.117 148V9.99999H453.517C475.251 9.99999 486.117 20.8667 486.117 42.6V65.2C486.117 82 479.451 92.2 466.117 95.8L490.117 142.8L487.117 148H466.317L440.717 97.6H411.517V148H387.117ZM411.517 75.4H452.917C458.784 75.4 461.717 72.4667 461.717 66.6V40.8C461.717 35.0667 458.784 32.2 452.917 32.2H411.517V75.4ZM503.823 32.2V9.99999H615.223V32.2H571.823V148H547.223V32.2H503.823ZM635.917 115.4V9.99999H660.317V117.2C660.317 122.933 663.251 125.8 669.117 125.8H709.717C715.584 125.8 718.517 122.933 718.517 117.2V9.99999H742.917V115.4C742.917 137.133 732.051 148 710.317 148H668.517C646.784 148 635.917 137.133 635.917 115.4ZM773.789 115.4V42.6C773.789 20.8667 784.656 9.99999 806.389 9.99999H852.189C873.922 9.99999 884.789 20.8667 884.789 42.6V115.4C884.789 137.133 873.922 148 852.189 148H806.389C784.656 148 773.789 137.133 773.789 115.4ZM798.189 117.2C798.189 122.933 801.122 125.8 806.989 125.8H851.589C857.456 125.8 860.389 122.933 860.389 117.2V40.8C860.389 35.0667 857.456 32.2 851.589 32.2H806.989C801.122 32.2 798.189 35.0667 798.189 40.8V117.2ZM915.605 115.4V9.99999H940.005V117.2C940.005 122.933 942.938 125.8 948.805 125.8H989.405C995.271 125.8 998.205 122.933 998.205 117.2V9.99999H1022.6V115.4C1022.6 137.133 1011.74 148 990.005 148H948.205C926.471 148 915.605 137.133 915.605 115.4ZM1049.48 138.8V125.8H1111.28C1117.14 125.8 1120.08 122.933 1120.08 117.2V102C1120.08 96.9333 1117.81 93.9333 1113.28 93L1072.68 84.8C1057.21 81.7333 1049.48 71.3333 1049.48 53.6V42.6C1049.48 20.8667 1060.34 9.99999 1082.08 9.99999H1128.68L1140.48 19.2V32.2H1082.68C1076.81 32.2 1073.88 35.0667 1073.88 40.8V54.2C1073.88 59.2667 1076.14 62.2667 1080.68 63.2L1121.28 71.2C1136.74 74.4 1144.48 84.8 1144.48 102.4V115.4C1144.48 137.133 1133.61 148 1111.88 148H1061.28L1049.48 138.8ZM1218.52 115.4V42.6C1218.52 20.8667 1229.38 9.99999 1251.12 9.99999H1305.52L1317.32 19.2V32.2H1251.72C1245.85 32.2 1242.92 35.0667 1242.92 40.8V117.2C1242.92 122.933 1245.85 125.8 1251.72 125.8H1317.32V138.8L1305.52 148H1251.12C1229.38 148 1218.52 137.133 1218.52 115.4ZM1331.14 14.8L1334.14 9.99999H1354.94L1387.54 72.6L1420.34 9.99999H1441.34L1444.14 14.8L1399.94 98.4V148H1375.34V98.4L1331.14 14.8ZM1462.85 115.4V42.6C1462.85 20.8667 1473.72 9.99999 1495.45 9.99999H1549.85L1561.65 19.2V32.2H1496.05C1490.18 32.2 1487.25 35.0667 1487.25 40.8V117.2C1487.25 122.933 1490.18 125.8 1496.05 125.8H1561.65V138.8L1549.85 148H1495.45C1473.72 148 1462.85 137.133 1462.85 115.4ZM1588.68 148V9.99999H1613.08V125.8H1675.48V148H1588.68ZM1697.27 148V9.99999H1790.07V32.2H1721.67V65.4H1784.07V87.6H1721.67V125.8H1790.07V148H1697.27Z" fill="#BB1212"/>
<path d="M351.827 331V215.08H405.923C424.179 215.08 433.307 224.208 433.307 242.464V253.048C433.307 256.856 432.187 260.104 429.947 262.792L424.067 269.848L431.123 275.728C434.819 278.752 436.667 283.232 436.667 289.168V303.616C436.667 321.872 427.539 331 409.283 331H351.827ZM372.323 312.352H408.779C413.707 312.352 416.171 309.944 416.171 305.128V287.488C416.171 282.672 413.707 280.264 408.779 280.264H372.323V312.352ZM372.323 261.616H405.419C410.347 261.616 412.811 259.152 412.811 254.224V240.952C412.811 236.136 410.347 233.728 405.419 233.728H372.323V261.616ZM460.928 331V215.08H538.88V233.728H481.424V261.616H533.84V280.264H481.424V312.352H538.88V331H460.928ZM561.499 331V215.08H581.995V261.616H630.883V215.08H651.379V331H630.883V280.264H581.995V331H561.499ZM679.952 331V215.08H700.448V331H679.952ZM729.007 331V215.08H751.351L802.759 297.736V215.08H823.255V331H801.079L749.503 248.344V331H729.007ZM851.889 331V215.08H896.409C926.649 215.08 941.769 230.256 941.769 260.608V285.472C941.769 315.824 926.649 331 896.409 331H851.889ZM872.385 312.352H897.585C913.377 312.352 921.273 304.456 921.273 288.664V257.416C921.273 241.624 913.377 233.728 897.585 233.728H872.385V312.352ZM996.169 326.968L1031.95 215.08H1063.87L1099.49 326.968L1096.97 331H1079.66L1071.77 305.464H1023.89L1015.82 331H998.857L996.169 326.968ZM1029.6 286.816H1066.22L1049.42 233.728H1046.23L1029.6 286.816ZM1116.01 303.616V215.08H1136.5V305.128C1136.5 309.944 1138.97 312.352 1143.89 312.352H1178C1182.93 312.352 1185.39 309.944 1185.39 305.128V215.08H1205.89V303.616C1205.89 321.872 1196.76 331 1178.5 331H1143.39C1125.13 331 1116.01 321.872 1116.01 303.616ZM1233.5 331V215.08H1278.02C1308.26 215.08 1323.38 230.256 1323.38 260.608V285.472C1323.38 315.824 1308.26 331 1278.02 331H1233.5ZM1253.99 312.352H1279.19C1294.99 312.352 1302.88 304.456 1302.88 288.664V257.416C1302.88 241.624 1294.99 233.728 1279.19 233.728H1253.99V312.352ZM1337.42 326.968L1373.2 215.08H1405.12L1440.74 326.968L1438.22 331H1420.91L1413.02 305.464H1365.14L1357.07 331H1340.11L1337.42 326.968ZM1370.85 286.816H1407.47L1390.67 233.728H1387.48L1370.85 286.816ZM1456.58 303.616V242.464C1456.58 224.208 1465.71 215.08 1483.97 215.08H1529.66L1539.58 222.808V233.728H1484.47C1479.54 233.728 1477.08 236.136 1477.08 240.952V305.128C1477.08 309.944 1479.54 312.352 1484.47 312.352H1539.58V323.272L1529.66 331H1483.97C1465.71 331 1456.58 321.872 1456.58 303.616ZM1562.28 331V215.08H1582.78V331H1562.28ZM1601.09 233.728V215.08H1694.66V233.728H1658.21V331H1637.54V233.728H1601.09ZM1701.97 219.112L1704.49 215.08H1721.96L1749.34 267.664L1776.89 215.08H1794.53L1796.89 219.112L1759.76 289.336V331H1739.09V289.336L1701.97 219.112Z" fill="black"/>
</svg>
